Sources/FrostedUI/Resources/Icons.xcassets/discordSize24.imageset/discord-size-24.svg

<svg
  width="24"
  height="24"
  viewBox="0 0 24 24"
  fill="none"
  xmlns="http://www.w3.org/2000/svg"
  data-fui-icon="true"
>
  <path
    d="M19.6361 5.0228C18.1907 4.35756 16.6648 3.88561 15.0973 3.61902C14.8828 4.00447 14.6888 4.40105 14.5159 4.8071C12.8463 4.55418 11.1484 4.55418 9.47881 4.8071C9.30587 4.4011 9.1118 4.00452 8.8974 3.61902C7.32897 3.88786 5.80205 4.36093 4.35518 5.02628C1.48276 9.29851 0.704092 13.4646 1.09342 17.5716C2.77558 18.821 4.6584 19.7712 6.66003 20.3809C7.11074 19.7715 7.50956 19.1251 7.85226 18.4483C7.20135 18.2039 6.57311 17.9024 5.9748 17.5473C6.13227 17.4325 6.28627 17.3142 6.43508 17.1994C8.17601 18.0224 10.0761 18.4491 12 18.4491C13.9238 18.4491 15.8239 18.0224 17.5648 17.1994C17.7154 17.3229 17.8694 17.4412 18.0251 17.5473C17.4257 17.903 16.7963 18.2051 16.1442 18.4501C16.4865 19.1265 16.8853 19.7724 17.3364 20.3809C19.3398 19.7737 21.224 18.8239 22.9065 17.5734C23.3633 12.8106 22.1261 8.68273 19.6361 5.0228Z"
    stroke="currentColor"
    stroke-width="1.5"
  />
  <path
    d="M6.36426 12.8384C6.36426 14.0561 7.26059 15.0459 8.34553 15.0459 9.45124 15.0459 10.306 14.0561 10.3251 12.8384 10.3441 11.6208 9.4547 10.6223 8.34207 10.6223 7.22944 10.6223 6.36426 11.6208 6.36426 12.8384zM13.6751 12.8384C13.6751 14.0561 14.5679 15.0459 15.6546 15.0459 16.7603 15.0459 17.6134 14.0561 17.6324 12.8384 17.6515 11.6208 16.769 10.6223 15.6546 10.6223 14.5402 10.6223 13.6751 11.6208 13.6751 12.8384z"
    fill="currentColor"
  />
</svg>

<svg xmlns="http://www.w3.org/2000/svg" width="24" height="24" fill="none" data-fui-icon="true" viewBox="0 0 24 24"><path stroke="currentColor" stroke-width="1.5" d="M19.636 5.023a18.1 18.1 0 0 0-4.539-1.404q-.321.578-.581 1.188a16.8 16.8 0 0 0-5.037 0 13 13 0 0 0-.582-1.188 18.3 18.3 0 0 0-4.542 1.407C1.483 9.3.705 13.465 1.093 17.572A18.3 18.3 0 0 0 6.66 20.38q.677-.916 1.192-1.933c-.65-.244-1.279-.546-1.877-.9.157-.115.311-.234.46-.349a13.02 13.02 0 0 0 11.13 0q.225.188.46.348-.902.535-1.88.903.513 1.017 1.191 1.93a18.2 18.2 0 0 0 5.57-2.807c.457-4.762-.78-8.89-3.27-12.55Z"/><path fill="currentColor" d="M6.364 12.838c0 1.218.897 2.208 1.982 2.208 1.105 0 1.96-.99 1.98-2.208.018-1.217-.871-2.216-1.984-2.216s-1.978.999-1.978 2.216m7.311 0c0 1.218.893 2.208 1.98 2.208 1.105 0 1.958-.99 1.977-2.208.02-1.217-.863-2.216-1.977-2.216s-1.98.999-1.98 2.216"/></svg>
